!!!COM: Palestrina, Giovanni Perluigi da
!!!OPR: Spem In Alium
!!!OTL: Credo
**kern	**kern	**kern	**kern
*Ibass	*Itenor	*Icalto	*Icant
!Bassus	!Tenor	!Altus	!Cantus
*clefF4	*clefGv2	*clefG2	*clefG2
*k[]	*k[]	*k[]	*k[]
*A:aeo	*A:aeo	*A:aeo	*A:aeo
*M4/2	*M4/2	*M4/2	*M4/2
=1	=1	=1	=1
0r	0r	1r	0ee
.	.	[1a	.
=2	=2	=2	=2
0r	0r	1a]	1cc
.	.	1d	[1ff
=3	=3	=3	=3
0r	0r	1a	2ff]
.	.	.	2ee
.	.	2b	1dd
.	.	2b	.
=4	=4	=4	=4
0r	0e	2cc	1.ee
.	.	4b	.
.	.	4a	.
.	.	4g	.
.	.	4a	.
.	.	[2b	2dd
=5	=5	=5	=5
0r	1A	4b]	1cc
.	.	4a	.
.	.	1a	.
.	1e	.	1b
.	.	2g#	.
=6	=6	=6	=6
[0A	2e	2a	[0a
.	2e	2A	.
.	2f	4A	.
.	.	4B	.
.	4e	4c	.
.	4d	4d	.
=7	=7	=7	=7
1A]	4c	2e	0a]
.	4d	.	.
.	2.e	2c	.
1D	.	1f	.
.	4d	.	.
.	[2d	.	.
=8	=8	=8	=8
1A	2d]	1e	0r
.	2c#	.	.
2B-	1d	2r	.
2B-	.	2d	.
=9	=9	=9	=9
1A	1e	2d	1a
.	.	2c	.
4D	1d	1f	1a
4E	.	.	.
4F	.	.	.
4G	.	.	.
=10	=10	=10	=10
0A	0r	2e	1a
.	.	2.a	.
.	.	.	1cc
.	.	4g	.
.	.	2e	.
=11	=11	=11	=11
1r	2r	1f	2dd
.	1d	.	2dd
2r	.	1e	1ee
[2A	2c	.	.
=12	=12	=12	=12
2A]	2f	2r	2.cc
2F	2f	2a	.
.	.	.	4dd
2c	2e	2g	1ee
2c	[2a	[2cc	.
=13	=13	=13	=13
2A	4a]	2cc]	1r
.	4g	.	.
2.d	4f	2a	.
.	4e	.	.
.	1f	1a	2r
4c	.	.	.
2A	.	.	[2a
=14	=14	=14	=14
2B-	1d	2f	2a]
2B-	.	2d	2g
2.A	1e	2a	1cc
.	.	[2e	.
8G	.	.	.
8F	.	.	.
=15	=15	=15	=15
2G	2r	2e]	2b
2A	1e	2c	2.ee
1E	.	1g	.
.	.	.	4dd
.	2e	.	2b
=16	=16	=16	=16
0r	2c	2e	2cc
.	2A	1a	2cc
.	2e	.	1b
.	2e	2g#	.
=17	=17	=17	=17
2r	1A	0a	4cc
.	.	.	4b
1A	.	.	4cc
.	.	.	4dd
.	2r	.	[1ee
2A	[2A	.	.
=18	=18	=18	=18
2.c	2A]	2r	0ee]
.	2A	1e	.
4B	.	.	.
2A	2.c	.	.
2A	.	2e	.
.	4d	.	.
=19	=19	=19	=19
2E	2e	2g	0r
2A	2c	2a	.
1G	1d	2b	.
.	.	2g	.
=20	=20	=20	=20
0F	1f	2a	2r
.	.	2.cc	1a
.	1f	.	.
.	.	4b	.
.	.	[2a	2a
=21	=21	=21	=21
1C	2.e	2a]	2.cc
.	.	4g	.
.	4d	4f	4dd
1r	2c	2g	2ee
.	2A	2a	2cc
=22	=22	=22	=22
1r	1B-	2f	1dd
.	.	2g	.
1D	1A	[1a	1ff
=23	=23	=23	=23
2D	2r	1a]	1ff
2D	2A	.	.
2.F	2A	2r	1ff
.	2A	2A	.
4G	.	.	.
=24	=24	=24	=24
1.A	2.c	2A	1ee
.	.	2A	.
.	4d	.	.
.	2e	2c	1r
2F	2A	2d	.
=25	=25	=25	=25
2G	2B	2e	1r
2A	2c#	2e	.
1D	2d	2.f	1a
.	2d	.	.
.	.	4e	.
=26	=26	=26	=26
1A	1e	4c	2a
.	.	4d	.
.	.	2.e	2a
1F	2r	.	2cc
.	.	4d	.
.	2a	[2d	2dd
=27	=27	=27	=27
2E	2g	2d]	2ee
2E	2g	2c#	2ee
1D	2f	2d	2.ff
.	2d	[2a	.
.	.	.	4ee
=28	=28	=28	=28
0r	2f	2a]	4cc
.	.	.	4dd
.	2c	2g	2.ee
.	2d	2f	.
.	.	.	4dd
.	2G	2g	[2dd
=29	=29	=29	=29
1A	2A	1e	2dd]
.	1a	.	2cc#
2D	.	1d	1dd
[2d	2d	.	.
=30	=30	=30	=30
2d]	2f	2r	0r
2c	2e	1a	.
2.f	2.d	.	.
.	.	2d	.
4e	4e	.	.
=31	=31	=31	=31
2d	2f	1a	0r
2c	2e	.	.
2B	2d	2g	.
[2A	2e	[2cc	.
=32	=32	=32	=32
4A]	1A	4cc]	0r
4B	.	4b	.
4c	.	2a	.
4d	.	.	.
2e	1r	2g	.
[2d	.	2f	.
=33	=33	=33	=33
2d]	2r	1e	1r
4c	1e	.	.
4B	.	.	.
1c	.	1A	2r
.	2A	.	[2ee
=34	=34	=34	=34
1A	1e	2r	2ee]
.	.	2a	2a
1r	2e	2g	2ee
.	2c	[2cc	2ee
=35	=35	=35	=35
0r	2.g	2cc]	2dd
.	.	4b	2.gg
.	4f	4a	.
.	4e	2b	.
.	4d	.	4ff
.	2c	2cc	2ee
=36	=36	=36	=36
0r	2G	2b	2dd
.	2A	1a	2cc
.	1e	.	2b
.	.	2g	2b
=37	=37	=37	=37
1A	1r	2f	0a
.	.	4e	.
.	.	4d	.
2A	1c	1e	.
2A	.	.	.
=38	=38	=38	=38
1B-	2d	1r	0r
.	2d	.	.
[1A	1f	1a	.
=39	=39	=39	=39
1A]	1e	2a	1cc
.	.	2a	.
1r	1r	2b-	2dd
.	.	2b-	2dd
=40	=40	=40	=40
1r	2r	1a	2ff
.	1d	.	2ff
1A	.	2r	1ee
.	2c	[2a	.
=41	=41	=41	=41
1D	1f	2a]	2r
.	.	2a	1dd
1A	1e	1a	.
.	.	.	2cc
=42	=42	=42	=42
2F	1A	0a	1ff
2D	.	.	.
2.A	2.c	.	1ee
4B	4d	.	.
=43	=43	=43	=43
2c	2e	2r	1a
2d	1f	1a	.
2.A	.	.	2.cc
.	[2e	[2cc	.
4B	.	.	4dd
=44	=44	=44	=44
2c	2e]	2cc]	2ee
2d	1d	2.b-	1ff
1A	.	.	.
.	.	4a	.
.	2c#	[2a	[2ee
=45	=45	=45	=45
1B-	1d	2a]	4ee]
.	.	.	4dd
.	.	2g	1dd
1A	1e	1a	.
.	.	.	2cc#
=46	=46	=46	=46
[0D	1d	2r	0dd
.	.	1a	.
.	2r	.	.
.	[2d	2a	.
=47	=47	=47	=47
1D]	2d]	2a	0r
.	2d	2f	.
1r	2d	2b-	.
.	2c	[2a	.
=48	=48	=48	=48
0r	1.f	4a]	1.a
.	.	4g	.
.	.	4f	.
.	.	4e	.
.	.	2d	.
.	2e	2c#	2a
=49	=49	=49	=49
1r	2f	2d	2a
.	2d	2B-	2g
2r	2e	1A	1cc
[2A	2f	.	.
=50	=50	=50	=50
2A]	1e	2r	2a
2A	.	1c	1a
2A	2e	.	.
2F	[2f	2c	2a
=51	=51	=51	=51
2B-	4f]	2d	2f
.	4e	.	.
2B-	1d	2d	2g
1A	.	2f	2.a
.	2c	2e	.
.	.	.	4b
=52	=52	=52	=52
1A	2A	2.a	4cc
.	.	.	4dd
.	2c	.	1ee
.	.	4g	.
1r	1d	1f	.
.	.	.	[2dd
=53	=53	=53	=53
2r	1A	0e	2dd]
1A	.	.	4cc
.	.	.	4b
.	2r	.	2cc
2G	[2e	.	2b
=54	=54	=54	=54
2c	2e]	0r	1g
2B	2d	.	.
2A	2f	.	1a
2c	2e	.	.
=55	=55	=55	=55
2B	2d	0r	0r
2.A	2f	.	.
.	2e	.	.
4G	.	.	.
4F	[2d	.	.
4E	.	.	.
=56	=56	=56	=56
2D	2d]	1r	1a
1A	2c	.	.
.	1B	2r	2b
2G#	.	2e	2b
=57	=57	=57	=57
1A	1A	2e	2.cc
.	.	2f	.
.	.	.	4dd
1r	1r	2g	2ee
.	.	[2a	[2ff
=58	=58	=58	=58
0r	1A	4a]	4ff]
.	.	4g	4ee
.	.	2e	1ee
.	2A	2f	.
.	2B	2f	2dd
=59	=59	=59	=59
2r	2c	1e	1ee
2E	2B	.	.
2E	2.c	1r	1r
2F	.	.	.
.	4d	.	.
=60	=60	=60	=60
2G	2e	0r	0r
1A	2.f	.	.
.	4e	.	.
2E	[2e	.	.
=61	=61	=61	=61
1F	2e]	2r	1r
.	2d	1a	.
1E	2.e	.	2r
.	.	[2g	[2ee
.	4d	.	.
=62	=62	=62	=62
0r	2c	2g]	2ee]
.	2d	2f	1dd
.	1A	1e	.
.	.	.	2cc
=63	=63	=63	=63
1r	0r	2.d	2b
.	.	.	2.a
.	.	4c	.
2r	.	2B	.
.	.	.	4g
[2e	.	2c	[2g
=64	=64	=64	=64
2e]	1r	1d	2g]
1d	.	.	2f
.	2r	1A	1e
2c	[2a	.	.
=65	=65	=65	=65
1B	2a]	2r	1d
.	2g	1d	.
1A	2f	.	1r
.	[2e	2c	.
=66	=66	=66	=66
2G	2e]	2B	1r
2F	1d	2A	.
1E	.	1G	2r
.	2c#	.	[2gg
=67	=67	=67	=67
1D	2d	2.A	2gg]
.	1a	.	1ff
.	.	4B	.
1C	.	1c	.
.	[2g	.	2ee
=68	=68	=68	=68
1D	2g]	2A	1dd
.	2f	1a	.
2.E	1e	.	2cc
.	.	[2g	[2b
4F	.	.	.
=69	=69	=69	=69
2G	2d	2g]	2b]
2A	2c	2f	1a
1E	1B	[1e	.
.	.	.	2g#
=70	=70	=70	=70
1A	1A	1e]	1a
1r	1r	1r	1r
=71	=71	=71	=71
0F	0f	0a	0cc
=72	=72	=72	=72
1F	1f	1a	1cc
1C	1e	1g	1cc
=73	=73	=73	=73
1G	1d	1.g	1b
1G	2e	.	1b
.	[2d	2f	.
=74	=74	=74	=74
0A	2d]	1e	0a
.	4c	.	.
.	4B	.	.
.	2c	2r	.
.	2A	2e	.
=75	=75	=75	=75
2r	1d	1f	2r
2D	.	.	2a
1A	2c	2e	1a
.	2c	2f	.
=76	=76	=76	=76
2G	1d	0g	2b
2G	.	.	2b
1c	1e	.	1cc
=77	=77	=77	=77
1F	1f	1a	1cc
2r	2r	2r	2r
[2F	[2f	[2a	[2cc
=78	=78	=78	=78
2F]	2f]	2a]	2cc]
2F	2f	2a	2cc
1G	1d	1g	1b
=79	=79	=79	=79
1A	1c	1e	1a
1F	1A	1a	1cc
=80	=80	=80	=80
1F	1A	1a	1dd
1E	2B	2g	[1ee
.	[2G	2e	.
=81	=81	=81	=81
1C	2G]	0g	1ee]
.	1c	.	.
1G	.	.	1dd
.	2B	.	.
=82	=82	=82	=82
0C	1c	1g	1ee
.	1e	[1g	1cc
=83	=83	=83	=83
1D	2.d	2g]	2b
.	.	2f	1a
.	4c	.	.
1E	1B	1e	.
.	.	.	2g#
=84	=84	=84	=84
0A	0A	0e	0a
*	*	*	*-
!! Crucifixus
*Ibass	*Itenor	*Icalto
!Bassus	!Tenor	!Altus
*clefF4	*clefGv2	*clefG2
*k[]	*k[]	*k[]
*A:aeo	*A:aeo	*A:aeo
*M4/2	*M4/2	*M4/2
=85	=85	=85
0r	0r	0d
=86	=86	=86
0r	0r	1f
.	.	1g
=87	=87	=87
0r	0A	1a
.	.	2.cc
.	.	4b
=88	=88	=88
0r	1c	2a
.	.	2g
.	1d	1f
=89	=89	=89
1r	1e	2e
.	.	2c
[1D	2.f	4d
.	.	4e
.	.	4f
.	4e	4g
=90	=90	=90
1D]	1.d	4a
.	.	4f
.	.	2b-
1F	.	1a
.	2c	.
=91	=91	=91
1G	1B	1r
1A	1A	2.cc
.	.	4b
=92	=92	=92
2.c	2.e	2a
.	.	2g
4B	4d	.
2A	2c	2a
2G	[2d	[2b
=93	=93	=93
1F	4d]	4b]
.	4c	4a
.	2A	1a
1E	1B	.
.	.	2g
=94	=94	=94
0A	2.A	2f
.	.	4e
.	4B	4d
.	4c	2e
.	4d	.
.	[2e	2c
=95	=95	=95
1r	2e]	1f
.	1d	.
1A	.	1e
.	4c	.
.	4B	.
=96	=96	=96
2A	2c	1r
2G	2B	.
2F	1A	1a
2D	.	.
=97	=97	=97
2F	1r	2a
2E	.	2g
4D	1d	2f
4E	.	.
4F	.	2d
4G	.	.
=98	=98	=98
1A	2d	2f
.	2c	2e
1r	2f	4d
.	.	4e
.	2d	4f
.	.	4g
=99	=99	=99
1r	2f	1a
.	4e	.
.	4d	.
2r	1e	1r
2A	.	.
=100	=100	=100
2A	1A	1a
2G	.	.
2F	1r	2a
2E	.	2g
=101	=101	=101
4D	1a	2f
4E	.	.
4F	.	2d
4G	.	.
4A	2a	2f
4B	.	.
2c	2g	[2e
=102	=102	=102
2d	2f	4e]
.	.	4d
2G	2d	1d
1A	2f	.
.	[2e	2c#
=103	=103	=103
1B-	4e]	1d
.	4d	.
.	1d	.
1A	.	1e
.	2c#	.
=104	=104	=104
0D	1d	1d
.	2r	1f
.	[2d	.
=105	=105	=105
2r	2d]	0e
1A	2c	.
.	2A	.
2G	2B	.
=106	=106	=106
2E	2.c	0r
2F	.	.
.	4d	.
2G	2e	.
[2A	[2f	.
=107	=107	=107
4A]	4f]	1r
4G	4e	.
2E	1e	.
1F	.	2r
.	2d	[2a
=108	=108	=108
1E	1e	2a]
.	.	2g
2.A	1r	2e
.	.	2f
8G	.	.
8F	.	.
=109	=109	=109
2E	2r	2g
4D	1d	2.a
4E	.	.
4F	.	.
4G	.	4g
2A	2c	2e
=110	=110	=110
1D	2A	1f
.	2B	.
2A	2c	2e
[2D	[2d	4d
.	.	4e
=111	=111	=111
2D]	4d]	4f
.	4c	4g
2F	2A	1a
1E	1B	.
.	.	2g#
=112	=112	=112
1A	0A	[0a
2r	.	.
2D	.	.
=113	=113	=113
2D	2r	1a]
2D	2A	.
2.F	2A	1r
.	2A	.
4G	.	.
=114	=114	=114
2A	2.c	0r
2F	.	.
.	4d	.
2G	2e	.
2A	2c	.
=115	=115	=115
[0B-	1d	2r
.	.	2d
.	2.f	2d
.	.	2d
.	4e	.
=116	=116	=116
1B-]	4d	2.f
.	4c	.
.	1d	.
.	.	4g
1A	.	[1a
.	2c	.
=117	=117	=117
1d	2f	2a]
.	2d	2f
2c	2e	2g
2A	[2f	2a
=118	=118	=118
1G	2f]	1b-
.	2e	.
1F	[1f	[1a
=119	=119	=119
2r	0f]	1a]
2F	.	.
1B-	.	2.d
.	.	4e
=120	=120	=120
1A	0r	2f
.	.	4e
.	.	4d
2G	.	1e
[2A	.	.
=121	=121	=121
4A]	1c	1A
4G	.	.
4F	.	.
4E	.	.
4D	1f	1r
4E	.	.
4F	.	.
4G	.	.
=122	=122	=122
4A	1e	0r
4B	.	.
4c	.	.
4A	.	.
2B	2d	.
2c	[2e	.
=123	=123	=123
2.A	4e]	1c
.	4d	.
.	4c	.
4G	4B	.
2F	2A	1f
2E	[2d	.
=124	=124	=124
1A	2d]	1e
.	2c	.
1r	2B	2d
.	4A	[2e
.	4B	.
=125	=125	=125
1C	4c	4e]
.	4d	4d
.	2e	4c
.	.	4B
1F	2c	2A
.	4B	[2a
.	4A	.
=126	=126	=126
2E	1B	2a]
2E	.	2g#
2F	1A	2.a
4D	.	.
4E	.	4g
=127	=127	=127
4F	2r	2f
4G	.	.
2A	2c	2e
2D	1f	1d
[2d	.	.
=128	=128	=128
2d]	1e	1A
2c	.	.
2B	2d	1r
2G	[2e	.
=129	=129	=129
2.A	4e]	1r
.	4d	.
.	4c	.
4G	4B	.
4F	2A	1f
4E	.	.
2D	[2d	.
=130	=130	=130
1G	2d]	1b-
.	2e	.
1F	2.f	1a
.	8e	.
.	8d	.
=131	=131	=131
1r	2e	2g
.	2f	2.a
1F	2c	.
.	.	4g
.	[2f	4f
.	.	4e
=132	=132	=132
1B-	4f]	2.d
.	4e	.
.	2d	.
.	.	4e
2A	2c	4f
.	.	4e
2G	[2e	[2g
=133	=133	=133
1B-	4e]	4g]
.	4d	4f
.	1d	4f
.	.	8e
.	.	8d
1A	.	1e
.	2c#	.
=134	=134	=134
0D	0d	0d
!! Et ascendit
*Ibass	*Icalto	*Icant
!Bassus	!Altus	!Cantus
*clefF4	*clefG2	*clefG2
*k[]	*k[]	*k[]
*A:aeo	*A:aeo	*A:aeo
*M4/2	*M4/2	*M4/2
=135	=135	=135
0r	1r	0a
.	[1d	.
=136	=136	=136
0r	1d]	1dd
.	1a	1cc
=137	=137	=137
0r	1f	2a
.	.	2a
.	2d	2.ff
.	2d	.
.	.	4ee
=138	=138	=138
0r	2.b-	4dd
.	.	4cc
.	.	2dd
.	4a	.
.	4g	2ee
.	4f	.
.	2g	2dd
=139	=139	=139
0A	2.a	2cc
.	.	4a
.	4g	4b
.	2f	4cc
.	.	4dd
.	2e	[2ee
=140	=140	=140
1d	1f	2ee]
.	.	2dd
1c	1e	[1ee
=141	=141	=141
2A	2r	1ee]
2A	2e	.
2.f	1a	1r
4e	.	.
=142	=142	=142
4d	1f	0a
4c	.	.
1d	.	.
.	2d	.
2c	2e	.
=143	=143	=143
1B-	2f	1dd
.	2g	.
[1A	2a	1cc
.	2a	.
=144	=144	=144
1A]	2.cc	2a
.	.	2a
.	4b	.
[1D	4a	2.ff
.	4g	.
.	2a	.
.	.	4ee
=145	=145	=145
1D]	1f	4dd
.	.	4cc
.	.	2dd
1A	1e	2cc
.	.	2a
=146	=146	=146
1F	1A	4cc
.	.	4b
.	.	4a
.	.	4g
2D	[1f	4a
.	.	4g
2D	.	4f
.	.	4e
=147	=147	=147
1B-	2f]	2d
.	4e	1dd
.	4d	.
2.A	1e	.
.	.	2cc#
4G	.	.
=148	=148	=148
2F	1d	0dd
1G	.	.
.	2r	.
4F	2d	.
4E	.	.
=149	=149	=149
0D	2d	2r
.	2d	2a
.	1f	2a
.	.	2a
=150	=150	=150
0r	2e	1cc
.	2c	.
.	[1g	2b
.	.	2g
=151	=151	=151
0r	2g]	1.dd
.	4f	.
.	4e	.
.	2d	.
.	2e	4cc
.	.	4b
=152	=152	=152
2r	2f	2.a
2A	2e	.
.	.	4b
2A	2r	1cc
2A	2e	.
=153	=153	=153
1c	2e	1g
.	2e	.
2B	1g	1r
2G	.	.
=154	=154	=154
1.d	2f	1a
.	2d	.
.	2f	2a
4c	4e	2a
4B	4d	.
=155	=155	=155
1A	2e	1cc
.	2f#	.
2.G	[1g	2b
.	.	2g
4A	.	.
=156	=156	=156
4B	2g]	2.dd
4c	.	.
1d	4f	.
.	4e	8cc
.	.	8b
.	4f	2a
.	4g	.
2A	[2a	2cc
=157	=157	=157
1e	2a]	1b
.	2g#	.
2r	1a	[1a
2A	.	.
=158	=158	=158
1d	2r	1a]
.	2d	.
2d	1a	1r
[2d	.	.
=159	=159	=159
2d]	2a	0r
2c	1a	.
2d	.	.
2e	2g	.
=160	=160	=160
2f	2a	0r
4e	2b	.
4d	.	.
2c	4cc	.
.	4b-	.
[2d	4a	.
.	4g	.
=161	=161	=161
2d]	2f	1a
2c	2e	.
1B-	2f	1dd
.	2d	.
=162	=162	=162
1G	2.g	2dd
.	.	1dd
.	4f	.
1A	2e	.
.	[2f	2cc
=163	=163	=163
1r	4f]	2dd
.	4e	.
.	2c	2ee
1D	1d	2ff
.	.	4ee
.	.	4dd
=164	=164	=164
1A	2r	2cc
.	2A	2.ee
2A	1e	.
.	.	4dd
[2A	.	4cc
.	.	4b
=165	=165	=165
2A]	2e	2cc
2G	1e	2b
2A	.	2a
2B	2d	2g
=166	=166	=166
2c	2e	2.a
2d	2f	.
.	.	4b
2.e	2.g	2cc
.	.	[2b
4d	4f	.
=167	=167	=167
2c	2e	4b]
.	.	4a
2d	2f	1a
2B	1d	.
2B	.	2g#
=168	=168	=168
1A	2r	[0a
.	1c	.
2r	.	.
[2F	2A	.
=169	=169	=169
2F]	2c	1a]
2D	1d	.
2F	.	1r
2G	[2e	.
=170	=170	=170
1A	2e]	2r
.	2c	1cc
2.F	[1f	.
.	.	2a
4G	.	.
=171	=171	=171
4A	2f]	1cc
4B	.	.
1c	2e	.
.	2d	1dd
2B	2d	.
=172	=172	=172
2.c	1c	1ee
4B	.	.
4A	2r	2cc
4G	.	.
4F	[2f	2cc
4E	.	.
=173	=173	=173
1D	2f]	2.ff
.	2d	.
.	.	4ee
1r	2f	2dd
.	2g	2dd
=174	=174	=174
2r	2.a	2.cc
1F	.	.
.	4g	4b
.	4f	4a
.	4e	4g
2D	[2f	[2a
=175	=175	=175
2F	4f]	2a]
.	4e	.
2G	1d	4g
.	.	4f
1A	.	1e
.	2c	.
=176	=176	=176
2F	1f	1a
2F	.	.
2.B-	1d	2f
.	.	2f
4A	.	.
=177	=177	=177
2G	1.g	1.b-
2G	.	.
1D	.	.
.	2f#	2a
=178	=178	=178
2r	1f#	0a
1d	.	.
.	2r	.
2A	[2a	.
=179	=179	=179
1d	2a]	0r
.	2d	.
2d	1a	.
2c	.	.
=180	=180	=180
2f	2a	1r
2e	2g	.
1d	2b-	2r
.	2a	[2dd
=181	=181	=181
0G	2.b-	2dd]
.	.	2g
.	4a	.
.	2g	1dd
.	2f	.
=182	=182	=182
1A	2e	2dd
.	1a	2cc
1r	.	2.ff
.	2d	.
.	.	4ee
=183	=183	=183
0r	1g	2dd
.	.	2cc
.	2g	2b-
.	2f	2a
=184	=184	=184
2r	2b-	2g
1d	1a	2f
.	.	1b-
2G	[2g	.
=185	=185	=185
1d	2g]	0a
.	4f	.
.	4e	.
2d	2f	.
2c	2e	.
=186	=186	=186
2.f	2.d	2r
.	.	1dd
4e	4e	.
2d	4f	.
.	4g	.
2c	[2a	2a
=187	=187	=187
1B-	2a]	1dd
.	2g	.
1A	[1a	2dd
.	.	2cc
=188	=188	=188
2r	1a]	2.ff
2F	.	.
.	.	4ee
2B-	1r	2dd
2A	.	2cc
=189	=189	=189
1G	2r	2.b-
.	1g	.
.	.	8a
.	.	8g
[1G	.	[1b-
.	2d	.
=190	=190	=190
1G]	1g	1b-]
2r	2g	1a
[2d	2f	.
=191	=191	=191
2d]	1b-	2r
2G	.	2dd
1d	2a	2.ff
.	[2f	.
.	.	4ee
=192	=192	=192
2d	2f]	1.dd
2G	1b-	.
2B-	.	.
2F	2a	2cc
=193	=193	=193
0G	0g	0b-
=194	=194	=194
0D	0f#	0a
*-	*-	*-
!! Et in Spiritum
**kern	**kern	**kern	**kern
*Ibass	*Itenor	*Icalto	*Icant
!Bassus	!Tenor	!Altus	!Cantus
*clefF4	*clefGv2	*clefG2	*clefG2
*k[]	*k[]	*k[]	*k[]
*A:aeo	*A:aeo	*A:aeo	*A:aeo
*M4/2	*M4/2	*M4/2	*M4/2
=195	=195	=195	=195
0r	0r	1.a	1r
.	.	.	[1ee
.	.	2a	.
=196	=196	=196	=196
0r	0r	2a	2ee]
.	.	2a	2ee
.	.	2g	2ee
.	.	2cc	2ee
=197	=197	=197	=197
0r	1r	2b	2dd
.	.	2.a	2ff
.	2r	.	2ee
.	.	4g	.
.	[2d	4f	[2ff
.	.	4e	.
=198	=198	=198	=198
0r	2d]	2d	2ff]
.	2c	2e	1ee
.	2A	1f	.
.	2B	.	2dd
=199	=199	=199	=199
2r	2.c	1e	0ee
1A	.	.	.
.	4d	.	.
.	4e	2r	.
.	4f	.	.
2G	[2g	[2e	.
=200	=200	=200	=200
2E	2g]	2e]	0r
2F	2f	2d	.
2G	1e	2B	.
2A	.	2c	.
=201	=201	=201	=201
1D	1f	1d	2r
.	.	.	1a
1E	1e	2B	.
.	.	[2e	2g
=202	=202	=202	=202
2r	1A	2e]	1cc
1A	.	2c	.
.	2r	1f	1a
2F	[2a	.	.
=203	=203	=203	=203
1B-	2a]	1d	2r
.	2g	.	1dd
1A	1a	2r	.
.	.	[2a	2cc
=204	=204	=204	=204
0r	1e	2a]	1b
.	.	2g	.
.	1r	1f	2.a
.	.	.	4b
=205	=205	=205	=205
0r	1r	2.e	2cc
.	.	.	4b
.	.	4f	4a
.	2r	2g	4b
.	.	.	4cc
.	[2d	4f	4dd
.	.	4g	4ee
=206	=206	=206	=206
0r	2d]	4a	2ff
.	.	4b	.
.	2c	2.cc	2ee
.	1f	.	1a
.	.	4b	.
.	.	[2a	.
=207	=207	=207	=207
1r	0e	2a]	2b
.	.	2g#	1ee
[1A	.	1a	.
.	.	.	2cc
=208	=208	=208	=208
2A]	2r	1a	1ff
2F	2.a	.	.
1c	.	1r	2.ee
.	4g	.	.
.	2e	.	.
.	.	.	4dd
=209	=209	=209	=209
2A	1.f	0r	2cc
2.d	.	.	2a
.	.	.	2b-
4c	.	.	.
2A	2e	.	[2a
=210	=210	=210	=210
2B-	1d	2r	2a]
2B-	.	1d	2g
2.A	1e	.	[1a
.	.	2c	.
4G	.	.	.
=211	=211	=211	=211
2F	2r	1f	1a]
2D	1d	.	.
1A	.	1e	2r
.	2c	.	[2a
=212	=212	=212	=212
0r	1f	1d	2a]
.	.	.	2a
.	2e	[1A	[1cc
.	[2a	.	.
=213	=213	=213	=213
0r	4a]	1A]	1cc]
.	4g	.	.
.	2e	.	.
.	1f	2r	1dd
.	.	2d	.
=214	=214	=214	=214
1.A	1e	2d	1ee
.	.	2c	.
.	1r	1f	[1a
2A	.	.	.
=215	=215	=215	=215
1A	0r	2e	1a]
.	.	2.a	.
1c	.	.	1r
.	.	4g	.
.	.	2e	.
=216	=216	=216	=216
1d	1r	1f	2r
.	.	.	1a
1e	2r	2.e	.
.	[2e	.	2g
.	.	4d	.
=217	=217	=217	=217
1A	2e]	4c	2cc
.	.	4B	.
.	2c	2A	2cc
1r	1f	1d	2a
.	.	.	[2dd
=218	=218	=218	=218
1r	1f	2r	4dd]
.	.	.	4cc
.	.	1a	4a
.	.	.	4b
2r	[1e	.	2cc
[2E	.	2g	2b
=219	=219	=219	=219
2E]	1e]	2cc	1ee
2C	.	2cc	.
2F	1A	2a	2cc
2F	.	[2a	2dd
=220	=220	=220	=220
2E	2B	4a]	2.ee
.	.	4g	.
2.A	2.c	2e	.
.	.	.	4dd
.	.	4f	2cc
4G	4B	4e	.
2E	2G	[2e	[2b
=221	=221	=221	=221
1F	1A	2e]	4b]
.	.	.	4a
.	.	2d	1a
1E	1B	1e	.
.	.	.	2g#
=222	=222	=222	=222
0A	2A	1e	0a
.	2e	.	.
.	2e	2r	.
.	2e	2a	.
=223	=223	=223	=223
0r	1f	2a	1r
.	.	2a	.
.	2e	1cc	1ee
.	2c	.	.
=224	=224	=224	=224
0r	1e	2b	2ee
.	.	2g	2ee
.	1d	2a	1ff
.	.	2b	.
=225	=225	=225	=225
1A	2c	1cc	2ee
.	2f	.	2cc
2A	2e	2r	1ee
2A	2c	2a	.
=226	=226	=226	=226
2.B-	2d	2f	1dd
.	2d	2g	.
4A	.	.	.
2A	2e	2.a	2cc
2F	2f	.	2a
.	.	8g	.
.	.	8f	.
=227	=227	=227	=227
1A	2c	2e	2a
.	1f	2f	2a
1G	.	1g	2.b-
.	2e	.	.
.	.	.	4b-
=228	=228	=228	=228
0F	1f	2c	2a
.	.	2.d	2f
.	1r	.	1a
.	.	4c	.
.	.	[2f	.
=229	=229	=229	=229
1r	1c	2f]	1g
.	.	2e	.
1F	2c	1f	2.f
.	2A	.	.
.	.	.	4g
=230	=230	=230	=230
2F	2c	0r	1a
2D	1d	.	.
2F	.	.	1r
2G	2e	.	.
=231	=231	=231	=231
2A	2f#	0r	1r
2B	2.g	.	.
2.c	.	.	2r
.	4f	.	.
.	4e	.	[2cc
4B-	4d	.	.
=232	=232	=232	=232
4A	2e	0r	2cc]
4G	.	.	.
2.A	2f	.	2a
.	2e	.	2cc
4G	.	.	.
2F	[2d	.	2dd
=233	=233	=233	=233
1E	2d]	1r	2ee
.	2c#	.	2ee
[1D	[1d	2r	1ff
.	.	[2f	.
=234	=234	=234	=234
1D]	1d]	2f]	2dd
.	.	2d	1ff
1r	1r	2f	.
.	.	2g	4ee
.	.	.	4dd
=235	=235	=235	=235
0r	0r	2a	2cc
.	.	2b	2dd
.	.	1cc	1ee
=236	=236	=236	=236
0r	1r	2b	2dd
.	.	1a	2cc
.	[1e	.	1b
.	.	2g#	.
=237	=237	=237	=237
0A	1e]	1a	1a
.	1c	[1a	1r
=238	=238	=238	=238
1F	1f	1a]	1r
1B-	2.d	1g	[1dd
.	4e	.	.
=239	=239	=239	=239
0A	1f	0a	1dd]
.	1e	.	1cc
!! resurrectionem
*Ibass	*Itenor	*Icalto	*Icant
!Bassus	!Tenor	!Altus	!Cantus
*clefF4	*clefGv2	*clefG2	*clefG2
*k[]	*k[]	*k[]	*k[]
*A:aeo	*A:aeo	*A:aeo	*A:aeo
*M3/2	*M3/2	*M3/2	*M3/2
=240	=240	=240	=240
2r	1d	1a	1.dd
1d	.	.	.
.	2r	2d	.
=241	=241	=241	=241
2c	1a	2e	1ee
2A	.	2c	.
2B	2g	2d	2r
=242	=242	=242	=242
2c	2e	2e	2r
2d	2f	2d	1dd
2B	2d	2r	.
=243	=243	=243	=243
2A	2e	1a	2cc
2d	2f	.	2a
2G	2d	2g	2b
=244	=244	=244	=244
2A	2.a	2e	2cc
1d	.	2f	2a
.	4g	.	.
.	2f	2d	2b
=245	=245	=245	=245
2c	2e	2e	2cc
1B-	1d	2f	1dd
.	.	2g	.
!! Et vitam
*Ibass	*Itenor	*Icalto	*Icant
!Bassus	!Tenor	!Altus	!Cantus
*clefF4	*clefGv2	*clefG2	*clefG2
*k[]	*k[]	*k[]	*k[]
*A:aeo	*A:aeo	*A:aeo	*A:aeo
*M4/2	*M4/2	*M4/2	*M4/2
=246	=246	=246	=246
0A	0e	1a	0cc#
.	.	1a	.
=247	=247	=247	=247
1r	1r	1r	1r
1A	1e	1a	1cc#
=248	=248	=248	=248
1d	1f#	1a	1dd
2G	2g	2b	2dd
2G	2g	2b	2dd
=249	=249	=249	=249
1.c	2.g	1cc	2.ee
.	4f	.	4dd
.	2e	1g	2cc
2G	2d	.	2b
=250	=250	=250	=250
2A	2c	1e	2a
2E	2B	.	2g#
1F	2A	1c	1a
.	[2f	.	.
=251	=251	=251	=251
1D	4f]	1d	2.ff
.	4e	.	.
.	4d	.	.
.	4c	.	4ee
[1G	4B	2.d	4dd
.	4A	.	4cc
.	2G	.	4b
.	.	4c	4a
=252	=252	=252	=252
1G]	2.g	4B	2g
.	.	4A	.
.	.	2G	2.gg
.	4f	.	.
1C	4e	1g	.
.	4d	.	4ff
.	4c	.	4ee
.	4B	.	4dd
=253	=253	=253	=253
1F	2A	2.a	4cc
.	.	.	4b
.	2.a	.	2a
.	.	4g	.
[1D	.	4f	2.dd
.	4g	4e	.
.	4f	[2d	.
.	4e	.	4cc
=254	=254	=254	=254
1D]	2d	4d]	2b
.	.	4e	.
.	2c	2f	1a
1E	1B	2e	.
.	.	[2e	2g#
=255	=255	=255	=255
2r	1A	4e]	0a
.	.	4d	.
2.A	.	4c	.
.	.	4B	.
.	2r	1A	.
4G	.	.	.
4F	[2a	.	.
4E	.	.	.
=256	=256	=256	=256
2D	4a]	0a	2r
.	4g	.	.
1d	4f	.	1ff
.	4e	.	.
.	2d	.	.
2c#	2e	.	2ee
=257	=257	=257	=257
1d	0f	[0a	0dd
1D	.	.	.
=258	=258	=258	=258
[0A	[0e	1a_	[0cc#
.	.	1a_	.
=259	=259	=259	=259
0A]	0e]	0a]	0cc#]
==	==	==	==
*-	*-	*-	*-
!!!CDT: 1525/^1526/-1594/2/2
!!!OCY: Italia
!!!AGN: Mass (Parody)
!!!AST: renaissance, vocal
!!!ASW: Motet 1539 (Jacquet)
!!!PWK: Masses, Book 3
!!!RNB: Cadence finals: D
!!!YOR: Le Opere Complete, v. 6, p. 1
!!!YOO: Rome, Italy: Fratelli Scalera
!!!END: 1992//
!!!EED: John Miller
!!!YEC: Copyright 2000, John Miller
!!!YEN: United States of America
!!!YEM: Rights to all derivative electronic formats reserved.
!!!YEM: Refer to licensing agreement for further details.
!!!YEM: This file must be accompanied by the licensing agreement.
!!!YEM: A copy of the licensing agreement may be found at http://www.music-cog.ohio-state.edu/HumdrumDatabases/Palestrina/license.txt
!!!EMD: converted to Humdrum by Bret Aarden
